symbols/web/difference/materialsymbolssharp/difference_grad200_40px.svg

<svg xmlns="http://www.w3.org/2000/svg" height="40" width="40"><path d="M21.125 18.167h3.333v-3.459h3.417v-3.333h-3.417V7.958h-3.333v3.417h-3.458v3.333h3.458Zm-3.458 6.291h10.208v-3.333H17.667Zm-8.792 8.459V0h16.917l10.875 10.958v21.959Zm3.5-3.5h20.792V12.625L24 3.5H12.375Zm-10.5 10.5V10.708h3.5v25.709H26v3.5Zm10.5-10.5V3.5v25.917Z"/></svg>

<svg xmlns="http://www.w3.org/2000/svg" height="40" width="40"><path d="M21.125 18.167H24.458V14.708H27.875V11.375H24.458V7.958H21.125V11.375H17.667V14.708H21.125ZM17.667 24.458H27.875V21.125H17.667ZM8.875 32.917V0H25.792L36.667 10.958V32.917ZM12.375 29.417H33.167V12.625L24 3.5H12.375ZM1.875 39.917V10.708H5.375V36.417H26V39.917ZM12.375 29.417V3.5V12.625V29.417Z"/></svg>
